weasis-distributions/resources/svg/action/selectionDelete.svg

<?xml version="1.0" encoding="UTF-8"?>
<svg width="16" height="16" version="1.1" viewBox="0 0 16 16" xmlns="http://www.w3.org/2000/svg">
 <g fill="#6e6e6e">
  <path d="m6.6667 1.3333h2.6667v1.3333h-2.6667z"/>
  <path d="m14.667 2.6667v2h-1.3334v-2h-2v-1.3333h2c0.7334 0 1.3334 0.6 1.3334 1.3333z"/>
  <path d="m1.3333 2.6667c0-0.35362 0.14048-0.69276 0.39053-0.94281 0.25004-0.25005 0.58918-0.39052 0.94281-0.39052h2v1.3333h-2v2h-1.3333z"/>
  <path d="m1.3333 6.6667h1.3333v2.6667h-1.3333z"/>
  <path d="m13.333 6.6667h1.3334v2.6667h-1.3334z"/>
 </g>
 <path d="M 9.72667,5.33334 8,7.06 6.27333,5.33334 l -0.94,0.94 L 7.06,8 5.33333,9.72667 6.27333,10.6667 8,8.94 9.72667,10.6667 10.6667,9.72667 8.94,8 10.6667,6.27334 Z" fill="#db5860"/>
 <g fill="#6e6e6e">
  <path d="m6.6667 13.333h2.6667v1.3334h-2.6667z"/>
  <path d="m1.3333 13.333v-2h1.3333v2h2v1.3334h-2c-0.73334 0-1.3333-0.6-1.3333-1.3334z"/>
  <path d="m13.333 13.333v-2h1.3334v2c0 0.3537-0.1405 0.6928-0.3906 0.9428-0.25 0.2501-0.5891 0.3906-0.9428 0.3906h-2v-1.3334z"/>
 </g>
</svg>

<svg width="16" height="16" viewBox="0 0 16 16" fill="none" xmlns="http://www.w3.org/2000/svg">
<path d="M13.3333 13.3333V11.3333H14.6667V13.3333C14.6667 13.687 14.5262 14.0261 14.2761 14.2761C14.0261 14.5262 13.687 14.6667 13.3333 14.6667H11.3333V13.3333H13.3333ZM1.33333 13.3333V11.3333H2.66667V13.3333H4.66667V14.6667H2.66667C1.93333 14.6667 1.33333 14.0667 1.33333 13.3333ZM6.66667 13.3333H9.33333V14.6667H6.66667V13.3333ZM9.72667 5.33334L8 7.06L6.27333 5.33334L5.33333 6.27334L7.06 8L5.33333 9.72667L6.27333 10.6667L8 8.94L9.72667 10.6667L10.6667 9.72667L8.94 8L10.6667 6.27334L9.72667 5.33334ZM13.3333 6.66667H14.6667V9.33334H13.3333V6.66667ZM1.33333 6.66667H2.66667V9.33334H1.33333V6.66667ZM1.33333 2.66667C1.33333 2.31305 1.47381 1.97391 1.72386 1.72386C1.9739 1.47381 2.31304 1.33334 2.66667 1.33334H4.66667V2.66667H2.66667V4.66667H1.33333V2.66667ZM14.6667 2.66667V4.66667H13.3333V2.66667H11.3333V1.33334H13.3333C14.0667 1.33334 14.6667 1.93334 14.6667 2.66667ZM6.66667 1.33334H9.33333V2.66667H6.66667V1.33334Z" fill="#6E6E6E"/>
</svg>
